actions/32/list-add.svg

<?xml version="1.0" encoding="UTF-8" standalone="no"?>
<!-- Created with Inkscape (http://www.inkscape.org/) -->

<svg
   xmlns:svg="http://www.w3.org/2000/svg"
   xmlns="http://www.w3.org/2000/svg"
   xmlns:xlink="http://www.w3.org/1999/xlink"
   version="1.0"
   width="32"
   height="32"
   id="svg3257">
  <defs
     id="defs3259">
    <linearGradient
       id="linearGradient8838">
      <stop
         id="stop8840"
         style="stop-color:black;stop-opacity:1"
         offset="0" />
      <stop
         id="stop8842"
         style="stop-color:black;stop-opacity:0"
         offset="1" />
    </linearGradient>
    <radialGradient
       cx="62.625"
       cy="4.625"
       r="10.625"
       fx="62.625"
       fy="4.625"
       id="radialGradient2469"
       xlink:href="#linearGradient8838"
       gradientUnits="userSpaceOnUse"
       gradientTransform="matrix(1.5058824,0,0,0.37647,-78.305888,26.258824)" />
    <linearGradient
       id="linearGradient2264">
      <stop
         id="stop2266"
         style="stop-color:#d7e866;stop-opacity:1"
         offset="0" />
      <stop
         id="stop2268"
         style="stop-color:#8cab2a;stop-opacity:1"
         offset="1" />
    </linearGradient>
    <linearGradient
       x1="24.103895"
       y1="15.180944"
       x2="24.103895"
       y2="34.224861"
       id="linearGradient2452"
       xlink:href="#linearGradient2264"
       gradientUnits="userSpaceOnUse"
       gradientTransform="matrix(1.371986,0,0,1.3637101,-16.760391,-15.390168)" />
    <linearGradient
       id="linearGradient3245">
      <stop
         id="stop3247"
         style="stop-color:white;stop-opacity:1"
         offset="0" />
      <stop
         id="stop3249"
         style="stop-color:white;stop-opacity:0"
         offset="1" />
    </linearGradient>
    <linearGradient
       x1="15"
       y1="1"
       x2="15"
       y2="31.066593"
       id="linearGradient3255"
       xlink:href="#linearGradient3245"
       gradientUnits="userSpaceOnUse" />
  </defs>
  <g
     id="layer1">
    <path
       d="m 31.999998,28 c 0,2.209139 -7.163445,4 -16.000001,4 C 7.1634417,32 -3.2e-6,30.209139 -3.2e-6,28 c 0,-2.209139 7.1634449,-4 16.0000002,-4 8.836556,0 16.000001,1.790861 16.000001,4 l 0,0 z"
       id="path8836"
       style="opacity:0.3;fill:url(#radialGradient2469);fill-opacity:1;fill-rule:evenodd;stroke:none;stroke-width:0.99999988;marker:none;visibility:visible;display:inline;overflow:visible" />
    <path
       d="m 10.5,10.5 0,-9.0000001 11,0 0,9.0000001 9,0 0,11 -9,0 0,9 -11,0 0,-9 -9,0 0,-11 9,0 z"
       id="path2262"
       style="fill:url(#linearGradient2452);fill-opacity:1;fill-rule:evenodd;stroke:#699536;stroke-width:1;stroke-linecap:butt;stroke-linejoin:round;stroke-miterlimit:4;stroke-opacity:1;stroke-dasharray:none;display:inline" />
    <path
       d="m 11.5,2.5 0,8 c -0.004,0.550623 -0.449377,0.99601 -1,1 l -8,0 0,9 8,0 c 0.550623,0.004 0.99601,0.449377 1,1 l 0,8 9,0 0,-8 c 0.004,-0.550623 0.449377,-0.99601 1,-1 l 8,0 0,-9 -8,0 c -0.550623,-0.004 -0.99601,-0.449377 -1,-1 l 0,-8 -9,0 z"
       id="path3253"
       style="opacity:0.4;fill:none;stroke:url(#linearGradient3255);stroke-width:1;stroke-linecap:butt;stroke-linejoin:miter;stroke-miterlimit:4;stroke-opacity:1;stroke-dasharray:none;display:inline" />
  </g>
</svg>

<?xml version="1.0" encoding="UTF-8" standalone="no"?>
<!-- Created with Inkscape (http://www.inkscape.org/) -->
<svg
   xmlns:svg="http://www.w3.org/2000/svg"
   xmlns="http://www.w3.org/2000/svg"
   xmlns:xlink="http://www.w3.org/1999/xlink"
   version="1.0"
   width="32"
   height="32"
   id="svg3257">
  <defs
     id="defs3259">
    <linearGradient
       id="linearGradient8838">
      <stop
         id="stop8840"
         style="stop-color:#000000;stop-opacity:1"
         offset="0" />
      <stop
         id="stop8842"
         style="stop-color:#000000;stop-opacity:0"
         offset="1" />
    </linearGradient>
    <radialGradient
       cx="62.625"
       cy="4.625"
       r="10.625"
       fx="62.625"
       fy="4.625"
       id="radialGradient2469"
       xlink:href="#linearGradient8838"
       gradientUnits="userSpaceOnUse"
       gradientTransform="matrix(1.5058824,0,0,0.37647,-78.305888,26.258824)" />
    <linearGradient
       id="linearGradient2264">
      <stop
         id="stop2266"
         style="stop-color:#d7e866;stop-opacity:1"
         offset="0" />
      <stop
         id="stop2268"
         style="stop-color:#8cab2a;stop-opacity:1"
         offset="1" />
    </linearGradient>
    <linearGradient
       x1="24.103895"
       y1="15.180944"
       x2="24.103895"
       y2="34.224861"
       id="linearGradient2452"
       xlink:href="#linearGradient2264"
       gradientUnits="userSpaceOnUse"
       gradientTransform="matrix(1.371986,0,0,1.3637101,-16.760391,-15.390168)" />
    <linearGradient
       id="linearGradient3245">
      <stop
         id="stop3247"
         style="stop-color:#ffffff;stop-opacity:1"
         offset="0" />
      <stop
         id="stop3249"
         style="stop-color:#ffffff;stop-opacity:0"
         offset="1" />
    </linearGradient>
    <linearGradient
       x1="15"
       y1="1"
       x2="15"
       y2="31.066593"
       id="linearGradient3255"
       xlink:href="#linearGradient3245"
       gradientUnits="userSpaceOnUse" />
  </defs>
  <g
     id="layer1">
    <path
       d="M 31.999998,28 C 31.999998,30.209139 24.836553,32 15.999997,32 C 7.1634417,32 -3.2e-06,30.209139 -3.2e-06,28 C -3.2e-06,25.790861 7.1634417,24 15.999997,24 C 24.836553,24 31.999998,25.790861 31.999998,28 L 31.999998,28 z"
       id="path8836"
       style="opacity:0.3;fill:url(#radialGradient2469);fill-opacity:1;fill-rule:evenodd;stroke:none;stroke-width:0.99999988;stroke-linecap:butt;stroke-linejoin:round;marker:none;marker-start:none;marker-mid:none;marker-end:none;stroke-miterlimit:4;stroke-dasharray:none;stroke-dashoffset:0;stroke-opacity:1;visibility:visible;display:inline;overflow:visible" />
    <path
       d="M 10.5,10.5 L 10.5,1.4999999 L 21.5,1.4999999 L 21.5,10.5 L 30.5,10.5 L 30.5,21.5 L 21.5,21.5 L 21.5,30.5 L 10.5,30.5 L 10.5,21.5 L 1.5,21.5 L 1.5,10.5 L 10.5,10.5 z"
       id="path2262"
       style="fill:url(#linearGradient2452);fill-opacity:1;fill-rule:evenodd;stroke:#699536;stroke-width:1;stroke-linecap:butt;stroke-linejoin:round;stroke-miterlimit:4;stroke-dasharray:none;stroke-opacity:1;display:inline" />
    <path
       d="M 11.5,2.5 L 11.5,10.5 C 11.49601,11.050623 11.050623,11.49601 10.5,11.5 L 2.5,11.5 L 2.5,20.5 L 10.5,20.5 C 11.050623,20.50399 11.49601,20.949377 11.5,21.5 L 11.5,29.5 L 20.5,29.5 L 20.5,21.5 C 20.50399,20.949377 20.949377,20.50399 21.5,20.5 L 29.5,20.5 L 29.5,11.5 L 21.5,11.5 C 20.949377,11.49601 20.50399,11.050623 20.5,10.5 L 20.5,2.5 L 11.5,2.5 z"
       id="path3253"
       style="opacity:0.4;fill:none;fill-opacity:1;fill-rule:evenodd;stroke:url(#linearGradient3255);stroke-width:1;stroke-linecap:butt;stroke-linejoin:miter;stroke-miterlimit:4;stroke-dasharray:none;stroke-opacity:1;display:inline" />
  </g>
</svg>
